/* XPM */
static char *leste_EA[] = {
/* columns rows colors chars-per-pixel */
"64 64 31 1 ",
"0 c #F5F0E0",
"1 c #F4EFDF",
"2 c #F3EEDE",
"3 c #F2EDDD",
"4 c #F6F1E1",
"5 c #F3EEDF",
"6 c #FBF6E5",
"7 c #FFFDEC",
"8 c #FFFFED",
"9 c #FDF8E7",
"a c #DBD6CA",
"b c #ADAAA1",
"c c #7F7E79",
"d c #535754",
"e c #FEFAE9",
"f c #D2CEC2",
"g c #CAC6BB",
"h c #BFBBB1",
"i c #FFFFF2",
"j c #F8F4E3",
"k c #E5E0D2",
"l c #EDE8D9",
"m c #424344",
"n c #F0ECDC",
"o c #F3EFDF",
"p c #F4F0E0",
"q c #F4EEDF",
"r c #12973B",
"s c #396C48",
"t c #F5F0DF",
"u c #F9EDE2",
/* pixels */
"0000000000000000000000000000000000000000000000000000000000000000",
"0000000000000000000000000000000000000000000000000000000000000000",
"0000000000000000000000000000000000000000000000000000000000000000",
"0000000000000000000000000123210440123210000000000000000000000000",
"0000000000000000000000530678794224978760350000000000000000000000",
"0000000000000000000021986abccddddddccba6891200000000000000000000",
"00000000000000000021eefcdddcbbgccgbbcdddcfee12000000000000000000",
"000000000000000012e6hddcbhe8i8ibbi8i8ehbcddh6e210000000000000000",
"0000000000000003j7hddbk7814lkfaccafkl4187kbddh7j3000000000000000",
"000000000000003elcmc48e0kghhggkcckgghhgk0e84cmcle300000000000000",
"000000000000038gdcka9nfhgalj6jibbij6jlaghfn9akcdg830000000000000",
"00000000000118bmb796fhfn6641o24ll42o1466nfhf697bmb81100000000000",
"0000000000p1ecmf8jkhf4645100000jj0000015464fhkj8fmce1p0000000000",
"000000000038cmf8jfhl901000000001100000000109lhfj8fmc830000000000",
"00000000038bmfblgg6j200000000000000000000002j6gglbfmb83000000000",
"000000003egmf8lbf911000000000000000000000000119fbl8fmge300000000",
"00000001jlmb7jgfe200000000000000000000000000002efgj7bmlj10000000",
"000000027cc76fg9200000000000000000000000000000029gf67cc720000000",
"0000002ehmk9kh610000000000000000000000000000000016hk9kmhe2000000",
"00000016dca6hlj1000000000000000000000000000000001jlh6acd61000000",
"000002ehd49ff92000000000000000000000000000000000029ff94dhe200000",
"00000qedb8nh4000000000000000000000000000000000000004hn8bdeq00000",
"000019fdkeff6100000000000000000000000000000000000016ffekdf910000",
"000038cc70hn4000000000000000000132100000000000000004nh07cc830000",
"0000p6db8kg65000000000000000001j8ej232000000000000056gk8bd6p0000",
"00016adh4ga6100000000000000001jkcgle89433100000000016ag4hda61000",
"00027bd9jhl4000000000000000002ehmrscbgn77903310000004lhj9db72000",
"00038cc8lhjt00000000000000000n9gsrrrrsscbau776o32100tjhl8cc83000",
"00027cbikg65000000000000013346igsrrrrrrrrsscba687jo3n6gkibc72000",
"00019db7agj500000000002316eenfbdsrrrrrrrrrrrrsdchk98eegf7bd91000",
"00004dgiaki4p000000004e86khcdmmmmsrrrrrrrrrrrrrrrsdcgqakigd40000",
"00042dcbccblj00000004nhcdmmmmmmmmmrrrrrrrrrrrrrrrrrrssdchbd24000",
"00042dcbccblj00000004nhcdmmmmmmmmmrrrrrrrrrrrrrrrrrrrsmdccd24000",
"00004dgiaki4p000000004784abcdmmmmsrrrrrrrrrrrrrrrsscbafkigd40000",
"00019db7agj5000000000023067elgbdsrrrrrrrrrrrrssdbgle78ff7bd91000",
"00027cbikg65000000000000013246ihrrrrrrrrrrsdchk98e42n6gkibc72000",
"00038cc8lhjt00000000000000001nebrrrrrrsscba687jo3210tjhl8cc83000",
"00027bd9jhl40000000000000000037brrsscbau776o321000004lhj9db72000",
"00016adh4ga61000000000000000056fcbf3779p3310000000016ag4hda61000",
"0000p6db8kg65000000000000000001j789433100000000000056gk8bd6p0000",
"000038cc70hn4000000000000000000133200000000000000004nh07cc830000",
"000019fdkeff6100000000000000000000000000000000000016ffekdf910000",
"00000qedb8nh4000000000000000000000000000000000000004hn8bdeq00000",
"000002ehd49ff92000000000000000000000000000000000029ff94dhe200000",
"00000016dca6hlj1000000000000000000000000000000001jlh6acd61000000",
"0000002ehmk9kh610000000000000000000000000000000016hk9kmhe2000000",
"000000027cc76fg9200000000000000000000000000000029gf67cc720000000",
"00000001jlmb7jgfe200000000000000000000000000002efgj7bmlj10000000",
"000000003egmf8lbf911000000000000000000000000119fbl8fmge300000000",
"00000000038bmfblgg6j200000000000000000000002j6gglbfmb83000000000",
"000000000038cmf8jfhl901000000000100000000109lhfj8fmc830000000000",
"0000000000p1ecmf8jkhf46451000004j0000015464fhkj8fmce1p0000000000",
"00000000000118bmb796fhfn6641o20lk42o1466nfhf697bmb81100000000000",
"000000000000038gdcka9nfhgalj66ihbij6jlaghfn9akcdg830000000000000",
"000000000000003elcmc48e0kghhggabckgghhgk0e84cmcle300000000000000",
"0000000000000003j7hddbk7814lkaabcafkl4187kbddh7j3000000000000000",
"000000000000000012e6hddcbhe8i8ihbi8i8ehbcddh6e210000000000000000",
"00000000000000000021eefcdddcbbgbcgbbcdddcfee12000000000000000000",
"0000000000000000000021986abccddddddccba6891200000000000000000000",
"0000000000000000000000530678794224978760350000000000000000000000",
"0000000000000000000000000123210440123210000000000000000000000000",
"0000000000000000000000000000000000000000000000000000000000000000",
"0000000000000000000000000000000000000000000000000000000000000000",
"0000000000000000000000000000000000000000000000000000000000000000"
};
