/* XPM */
static char *north_xpm[] = {
"64 64 48 1",
"0 c #1C1D21",
"1 c #1B1D21",
"2 c #1B1D20",
"3 c #21252B",
"4 c #2D3034",
"5 c #2B2E32",
"6 c #54585E",
"7 c #4A4F55",
"8 c #51555B",
"9 c #53575D",
"a c #52565C",
"b c #51555C",
"c c #444A53",
"d c #39414C",
"e c #50545A",
"f c #4D5157",
"g c #4F5358",
"h c #4F5359",
"i c #4F5257",
"j c #4C4F55",
"k c #2B2D32",
"l c #505459",
"m c #50555C",
"n c #4E5258",
"o c #51545A",
"p c #475668",
"q c #34699B",
"r c #309CEE",
"s c #405063",
"t c #505052",
"u c #535558",
"v c #50545B",
"w c #525355",
"x c #4F535A",
"y c #51555A",
"z c #56595E",
"A c #92D2F8",
"B c #72A2CC",
"C c #53687E",
"D c #54565A",
"E c #DBEEFC",
"F c #E0FFFF",
"G c #142234",
"H c #0D1625",
"I c #282F37",
"J c #EDFBFF",
"K c #E1F0FF",
"L c #E0EFFE",
"0012111111121111111211111112111111121111111211111112111111122100",
"0344555555545555555455555554555555545555555455555554555555544430",
"156789aaa9a789aaaaa7b9aaaaa789a99aa789aaa9a789aaaaa7b9aaaaa77651",
"14c0defffgc0defffhc3dijffhc3defjjhc3defffic0defffhc3dijffhc30c41",
"1k8df8eelm6cf8eeeeidm6mleendfom6pmidf8eelm6cj8eeeeidm6mleenddh51",
"0kfn777fcqrrcj7777jsrrqcf77nftprrstn777jcqrqcj7777tsrrqtf77nnfk0",
"1kaheeemtqrrsuveevusrrqtmeehvwqrrpwxeee8tqrr7yeeevusrrqtmeehhak1",
"15z9666ziqABsz6666zsBAqiz6666uCAApD6666zfqAB7z6666zsBAqw66669z51",
"1kahhhh87qEBsuxhhxusBEq78hhhvtCEApwxhhhycBFBcuhhhxusAEqtvhhhhak1",
"1kaaeeemtqrrsuveevusrrqtmeeemwqrrpwveee8tqrr7yeeevusrrqtmeeea9k1",
"159cea89tqArsDb88bDsrAqt9888awqrrpum8889jqAr79888mDsrAqwa8a8ca51",
"15c3dejhcqFBswffffwsBFqchfffntCEAstffffgcBFBcwffffwsAEq7nfhc3c42",
"1kedjehvtqrrsuxhhxusrrqtvhhhxtqrrpwxhhhojqrr7ohhhxwsrrqtvhendh51",
"0kff7777cqrrcj7777jcrrqc77777tprrst77777cqrrcj7777tsrrqt7777ffk0",
"1k9e88897qFBsDb88bDsBFq79888awCEApum8889cBFBcD888mDsAEqta888e9k1",
"1k688889tqABsDb88bDsBAqt6aaamwqABpum8aa6jqAB7D888mDsBAqta88886k1",
"1kmnnnnxtqrrswnnnnusrrqjffffmtqrrpwnefff7qrq7ynnnnwsrrqtxnnnnmk1",
"1k8ohhhm7qEBsuxhnycGHGHHHHHHIwCAAptadHHHHHGHHd8nhxwsAEqtvhhhoak1",
"1kfc7j7fcqABst777yIIABBBBBABHdCAAstaGsABBBBAsGa777tsBAqcf777cjk1",
"2470d6emtqrrsuvehzIdJJJJJJJJCHqrrpwzGCJJJJJJpGzhevusrrqwme9c0c42",
"156cl9a6tqABsDaa8zIdKEEEELEJEHsAApuzGCJEEEEJpGz8aaDsBAqw9a98ca41",
"1k66a8897qEBsDb8ezIdKLKKKKKEJCGEApuzGCJEKKEJpGze8mDsAEqta88a6zk1",
"1kaheeemtqrrsuvehzIdKLKKKKKLJEHqrswzGCJEKKEJpGzhevusrrqtmeeehak1",
"1kxffffn7qArsiffj9IdKLKKKKKKEJCGrpt6GCJEKKEJpG6jfftsrAqtnffffxk1",
"1khffffhcqFBswffj9IdKLKKKKKKLKEGCCt6GCJEKKEJpG6jffwsAEq7nffffhk1",
"1k8ohnhvtqrrslxhnzIdKLKKKKKLKEJCHptzGCJEKKEJpGznhxwsrrqtxhhho8k1",
"1kacheemtqrrsuvehzIdKLKKKLKKLLKEIIzzGCJEKKEJpGzhevusrrqtmeeec8k1",
"15c3dn7ncqFBswfj7DIdKLKKLJBEKKEJBH79GCJEKKEJpG97jftsAEqcf7fc3d51",
"1kmdfehmtqABsuxhnzIdKLKKEJCBJEKKLIIzGCJEKKEJpGznhxwsBAqtvhendh51",
"15z69aa9wqrrsDaa8zIdKLKKEJCGLKKEJBHzGCJEKKEJpGz8aaDprrqw9aaa6z51",
"1k8nhhhmcqEBsuxhnzIdKLKKEJCHBJEKLKdIGCJEKKEJpGznhxwsAEqtvhhhn8k1",
"1kennnnecqABsunnf6IdKLKKEJCHIEKLEJBHHCJEKKEJpGzfnnwsBAqtxnnnnek1",
"156y8aaawqrrsDaa8zIdKLKKEJCHHCJEKLJsHCJEKKEJpGz8amDprrqw9aaay651",
"1khnfjjncqABswfj7DIdKLKKEJCGdGEKLLJAHCJEKKEJpG97jftsBAqtfjjjnhk1",
"1kacneea7qEBsDvehzIdKLKKEJCHzHCJEKLJspJEKKEJpGzhevusAEqjmeehc8k1",
"24f3cz96uqrrpz669zIdKLKKEJCHzdHEJLLJACJEKKEJpGz966zprrqu66z73c42",
"158df8eatqArsDm8ezIdKLKKEJCHzzHCJLKKLAKKKKEJpGze8musrAqtm88hdl51",
"1kbaehh8cqFBsuxhnzIdKLKKEJCH6DdHAJLKKKKKKKEJpGznhxwsAEqjvhhhaak1",
"1knjjffntqrrsiffj9IdKLKKEJCH9tqG6JLKKLKKKKEJpG9jfftsrrqtnffjjnk1",
"1k9eeeemtqrrsuvehzIdKLKKEJCHztqrHAJLKKKKKKEJpGzhevusrrqtmeeee9k1",
"1keffffhcqFBswffj6IdKLKKEJCH6tCEpcJLKKKKKKEJpG6jffwsAEq7nffffxk1",
"1k998e8atqABsDm8ezIdKLKKEJCHzwCABHAJLKKKKKEJpGze8musBAqta8e899k1",
"15ach8emtqrrsDb8ezIdKLKKEJCHzwqrrGdJLKKKKKEJpGze8musrrqwm88ec851",
"1473d9ea7qEBsDvehzIdKEEEEJCHztCAAsHBJEEEEEEJpGzhevusAEqtbeac3c42",
"1kecjhhv7qABsuxhnzIdJJJJJJBHztCAApIdJJJJJJJJCGznhxwsBAqtvhhnchk1",
"1kxhfffntqrrsiffj9IIBBBBBBpGatqrrpjHCBBBBBBBdG9jfftsrrqtnfffhek1",
"1k8nhhhv7qABsuxhnocGGIHHHHHdatCAApudHHHHHGIGHc8nhxwsBAqtvhhhn8k1",
"1kennnnecqEBsunnnnusBEq798ooxtCEAptv8889cBEBcDnnnnwsAEqjxnnnnek1",
"1kaghhhvtqrrsuxhhxlsrrqtvlhhxtqrrpwxhlhetqrr7lhhhxwsrrqtvhhhgak1",
"1kaaeeemtqArsuveevusrAqtmeeemwqrrpwveee87qAr7yeeevusrAqtmeeea9k1",
"1kacneea7qFBsDveevDsBFq7aeeemtCEApwveeeDcBFBcDeeevusAEqjbeelc8k1",
"15c0dn7fcqrrcffjjffcrrqcfjjjftqrrst7jjjfcqrrcfjjj7tsrrqtfjfc0d41",
"1khd7nnxtqrrsinnnnisrrqtxnnnntqrrptnnnnhjqrr7gnnnnwsrrqtxnnfdfk1",
"14zzzzzzfqFBszzzzzzsBFqfzzzzzDCEApz6zzzz7BFBszzzz6zsAEquzzzzzz41",
"15za9996wqABsz9999zsBAqw69999uCABpD99996fqAB7z9999DsBAqw6999az51",
"1kvnnnnxtqrrsinnnnisrrqtxnnnxtqrrptnnnnhtqrr7gnnnnwsrrqtxnnnnvk1",
"1kaheeea7qEBsDveevDsBEq7aeeemtCAApwveeeacBEBcDeeevusAEqtmeeehak1",
"1k9a888ajqABsDb88bDsBAqja88emwCAApuv888a7BABcD888musBAqta88ea9k1",
"1k8cnehvtqrrslxhhxusrrqtvhhamtqrrpwmehhetqrr7ohhhxuprrqtvhe8cek1",
"24j3cz969pCpm6999697pCp96697a66CC697a6969pCpb6999697pCp969zd0c42",
"2470dz8a8Dc0c68a86c3dDua86c3c6uww6c3c68a8Dc0c68a86c3dDoa86c34951",
"156ce99999ace999998cv69999bce999998ce99999ace999998cv699998caz51",
"0344555555545555555455555554555555545555555455555554555555545530",
"0012111111121111111211111112111111121111111211111112111111121100"
};
