! XPM2
/* XPM */
static char *south_xpm[] = {
/* columns rows colors chars-per-pixel */
"64 64 48 1 ",
"0 c #0A0A0C",
"1 c #0C0B0B",
"2 c #06070B",
"3 c #02030F",
"4 c #241F0F",
"5 c #1A170B",
"6 c #0E0D0B",
"7 c #19140A",
"8 c #7D640B",
"9 c #D4A904",
"a c #E8B802",
"b c #F7C700",
"c c #0B0D15",
"d c #161614",
"e c #171613",
"f c #242013",
"g c #F8C300",
"h c #AB8908",
"i c #0D1217",
"j c #151411",
"k c #020615",
"l c #191714",
"m c #D9AF03",
"n c #FFD400",
"o c #040816",
"p c #181714",
"q c #080B12",
"r c #FECC00",
"s c #FEC600",
"t c #FFD900",
"u c #171614",
"v c #FFD200",
"w c #FFD300",
"x c #0B0D12",
"y c #FCC500",
"z c #FCC700",
"A c #221E17",
"B c #1C1B16",
"C c #010618",
"D c #431911",
"E c #050D11",
"F c #D5B002",
"G c #15161E",
"H c #864016",
"I c #FC3B28",
"J c #FF3E29",
"K c #16181A",
"L c #FED300",
/* pixels */
"0012222220000102222220000122222200001022222200001222222000012200",
"0034555540106215557470111354555401012155574701113754574010127500",
"1289aaab8cdecf9aaaghfijek8a9aab8ceejf9gaab9fijek8ba9ab8cdeilhm72",
"2493hnn8odpqfmnrst93idpk8t93ht8oduj3htssnmfqepk8vw9398oduclx3h43",
"25ahan8kdpcfmvyyvmfcupk8wzghb8kdpcfhgzgvmfceuk8nzzg98odpcf9hhm52",
"25ann8kupcfmvyyvmfcppk8nzszt8kupcfmtsyvmfcppk8nzszn8oulcfmwvng52",
"27an8kupcfmvyyvmfcpuk8nzszw8kppcfmvgyvmfcpuk8nzszn8kupcfmvygv960",
"25s8kupcfmvyyvmfcpuk8nzszn8kupcfmvyyvmfcpuk8nzszn8kupcfmvyyvmf21",
"248odpcfmvyyvmfcpuk8nzszn8kupcfmvyyvmfcpuk8nzszn8kupcfmvyyvmfc60",
"01qdpcfmvyyvmfcpuk8nzszn8kupcfmvyyvmfcpuk8nzszn8kupcfmvyyvmfce10",
"01jpcfmvyyvmfcpuk8nzszn8kupcfmvyyvmfcpuk8nzszn8kupcfmvyyvmfcpj10",
"01eqfmvyyvmfcpuk8nzszn8kupcfmvyyvmfcpuk8nzszn8kupcfmvyyvmfcpxq10",
"06cfmvyyvmfcpuk8nzszn8kupcfmvyyvmfcpuk8nzszn8kupcfmvyyvmfcpdo842",
"12fmvyyvmfcpuk8nzszn8kupcfmvyyvmfcpuk8nzszn8kupcfmvyyvmfcpuk8s52",
"069nyyvmfcpuk8nzszn8kupcfmvyyvmfcpuk8nzszn8kupcfmvyyvmfcpuk8ta72",
"25gzgvmfcpuk8nzszn8kupcfmvyyvmfcpuk8nzszn8kupcfmvyyvmfcpuk8wra52",
"25azvmfcpuk8nzszn8kllcfmvysnmfcpdk8vyszn8ollcfmvyyvmfcpuk8nyza52",
"25atmfcpuk8nzszn8kdckf9vgyr9AcBli8trryb8Cqqkfmvyyvmfcpuk8nzsng72",
"27g9fcpuk8nzszn8kdfD8atrvwv84xE34hhFgn9D8888mvyyvmfcpuk8nzsg9821",
"34h3cpuk8nzszn8klqDr99999984DDDDDDD44D8h9999azyvmfcpuk8nzyrmqq10",
"27fiupk8nzszn8kulk89CGGGc3DHIJJJJJJIIHHDkGGChvvmfcpuk8nzszn8qp10",
"10idpk8nzszn8kupcfm9GAAd7IJJJIIIIIIJJJJI6AAGht9fcpuk8nzszn8kdj10",
"01jpk8nzszn8kupcfmt9GAK6IJIIIIIJJJJIIIII6AAihmfcpuk8nzszn8kudi01",
"01ek8nzszn8kupcfmvr9GAEHJIJJJJJIIIJJJJJI6AAih8kluk8nzszn8kupcf72",
"01k8wzszn8kupcfmvgv9GB6IJIIIIHD777DDHIJI1AAih8olk8nzszn8kupcf942",
"128tzszn8kupcfmvyyw9GKDJIJIJH2KKKKKiE1DH6BAih8oo8nzszn8kupcfas72",
"27g9gzw8kupcfmvysrb9GiDJIJIJDiAAAAAAAAiEdAAih8C8nzszn8kupcfmma52",
"2493ht8kupcfmvyyn989GiDJIJIJH2iKBAAAAAAAAAAih88nzszn8kupcfmm3h43",
"25ahz8kupcfmvyyvmuD9GKDJIJJIJHD46EEiBAABAAAGh9szszn8kupcfmwgha52",
"27at8kupcfmvyyvmfk89GA6IJIJJIJJIIHHD6EKAAAAGhtyszn8kupcfmvyst910",
"25s8kppcfmvyyvmfcq89GAEHJIIJJIIJJJJJIH7EAAAGhLgzn8kupcfmvyyv9f21",
"248odpcfmvyyvmfcloD9GAA2HJJIIIJIIIIIJJIDEAAGhwgn8kupcfmvyyvmfc60",
"01qdpcfmvyyvmfcppk89GAAK2HIJJJIIIIJJIIJJDxAGhLv8kupcfmvyyvmfce10",
"01jucfmvyyvmfcpuk8t9GAAAAE7DHIJJJJIJJJIJI0AGht8kupcfmvyyvmfcpj10",
"01ejfmvyyvmfcpuk8vv9GAABAAKEE7DHHIJJJJJIJDKGhhkppcfmvyyvmfcpdc00",
"01j3htgyvmfcpuk8nyv9GAAAABAAAKiEE6HIIIJIJDiGh8kBcfmvyyvmfcpe3842",
"12fhgzyvmfcpuk8nzyr9GAdiAAABAAAAAB2HJIJIJDiGh8oifmvyyvmfcpuk8g52",
"069tsyvmfcpuk8nzsyt9GB7D2iKAAAAAAAEHJIJIJDiGh8Cfmvyyvmfcpuk8ta72",
"25gzgvmfcpuk8nzszrh9GK4IHD7EEiKKKE1IJIJIJDKGh8dmvyyvmfcpuk8wra52",
"25azvmfcpuk8nzszn8D9GK4IJJIHHDD4DDIJIJIJI7BGh89nyyvmfcpuk8nyra52",
"25anmfcpuk8nzszn8C89GK4IIIJJJJJIJJJIJJIJHEAGhwrsyvmfcpuk8nzyrg72",
"27smfcpuk8nzszn8oq89GK4JJIIIIIJJIIIIIIJI6KAGhngyvmfcpuk8nzszn821",
"249fcpuk8nzszn8klq89GB7IIJJJJJIIIIJJJJH7dAAGhngvmfcpuk8nzszn8k10",
"27fqepk8nzszn8kulk89CGo36DHIIIJJJJIIHD3CGGGChvvmfcpuk8nzszn83j10",
"10ieuk8nzszn8kupcfmahhhhhh8D44DDDDDD8hhhhhhhmnmfcpuk8nzszn8kej10",
"01jpk8nzszn8kupcfmvrvta88888hFhhh9888888vnwvnmfcpuk8nzszn8kpui01",
"01ek8nzszn8kupcfmvyyv9fkkoC8rvvvt8qqoki9zggvmfcpuk8nzszn8kupcf72",
"01k8nzszn8kupcfmvyyvmfcllo8nsygv8kdlifmnsyvmfcpuk8nzszn8kupcf942",
"128vzszn8kupcfmvyyvmfcpuk8nzszn8kupcfmvyyvmfcpuk8nzszn8kupcfmy72",
"27gwszn8kupcfmvyyvmfcpuk8nzszn8kupcfmvyyvmfcpuk8nzszn8kupcfmta52",
"25a9gn8kupcfmvyyvmfcpuk8nzszn8kupcfmvyyvmfcpuk8nzszn8kupcfmv9a52",
"249398kupcfmvyyvmfcpuk8nzszn8kupcfmvyyvmfcpuk8nzszn8kupcfmt93h43",
"25a98odpcfmvyyvmfcpuk8nzszn8kupcfmvyyvmfcpuk8nzszn8kupcfmvsg9962",
"25r8oulcfmvyyvmfcpuk8nzszn8kupcfmvyyvmfcpuk8nzszn8kupcfmvyywaf21",
"248odpcfmvyyvmfcpuk8nzszn8kupcfmvyyvmfcpuk8nzszn8kupcfmvyyvmfq60",
"01qdpcfmvyyvmfcpuk8nzszn8kupcfmvyyvmfcpuk8nzszn8kupcfmvyyvmfce10",
"01jpcfmvyyvmfcpuk8nzszn8kupcfmvyyvmfcpuk8nzszn8kupcfmvyyvmfcpj10",
"01eifmvyyvmfcpuk8nzyzn8kupcfmvyyvmfcpuk8nzszn8kupcfmvyyvmfcpjc00",
"01ip9wyyvmfcpuk8nzsvn8kupcfawyyvmfcpuk8nzszn8kupcfmtsyvmfcpdi842",
"12lxhrgvmfcpdk8wysg98kupcfmmgyvmfcpdk8wyszn8kupcfmv9gwmfcpde3h43",
"27h3hnvmfcpxo8trrnmqqducfaa3ht9fcpd38trrrn83eucfmt939afcpdi38a52",
"25ahmg9fcedq8baaab8qpjif9baha9fcedc8gaaag8kjjif9baah9fqedc8haa72",
"0074551260104555572111074754512601045555731110747554626010445710",
"0023220100002222221000022223201000022222210000222223210000232200"
};
