/* XPM */
static char *oeste_WE[] = {
/* columns rows colors chars-per-pixel */
"64 64 32 1 ",
"0 c #F5F0E0",
"1 c #F4EFDF",
"2 c #F3EEDE",
"3 c #F2EDDD",
"4 c #F6F1E1",
"5 c #F3EEDF",
"6 c #FCF6E6",
"7 c #FFFDEB",
"8 c #FFFEED",
"9 c #FDF8E7",
"a c #FAF5E5",
"b c #DBD6C9",
"c c #ADA9A0",
"d c #92908A",
"e c #727477",
"f c #4A4A4B",
"g c #FEFAE9",
"h c #D2CEC1",
"i c #CAC6BA",
"j c #BEBBB0",
"k c #FFFFF2",
"l c #F8F3E3",
"m c #E6E1D1",
"n c #ECE8D8",
"o c #F3EFDF",
"p c #F4F0E0",
"q c #F4EEDF",
"r c #F2EEDF",
"s c #495E85",
"t c #1D448E",
"u c #F5F0DF",
"v c #135ADE",
/* pixels */
"0000000000000000000000000000000000000000000000000000000000000000",
"0000000000000000000000000000000000000000000000000000000000000000",
"0000000000000000000000000000000000000000000000000000000000000000",
"0000000000000000000000000123210440123210000000000000000000000000",
"0000000000000000000000530678794224978760350000000000000000000000",
"000000000000000000002198abcdeeffffeedcba891200000000000000000000",
"00000000000000000021gghdffeedciddicdeeffdhgg12000000000000000000",
"000000000000000012g6jefecjg8k8kcck8k8gjcefej6g210000000000000000",
"0000000000000003l7jefcm7814nmbbddbbmn4187mcfej7l3000000000000000",
"000000000000003gnefd48g0mhjjiimddmiijjhm0g84dfeng300000000000000",
"000000000000038ifemb93hjibnl6lkcckl6lnbijh39bmefi830000000000000",
"00000000000118cfc79ahjh36641o24nn42o14663hjha97cfc81100000000000",
"0000000000p1gdfh8amjh4645100000ll0000015464hjma8hfdg1p0000000000",
"000000000038dfh8lhjn901000000001100000000109njhl8hfd830000000000",
"00000000038cfhcniial200000000000000000000002laiinchfc83000000000",
"000000003gifh8ndh911000000000000000000000000119hdn8hfig300000000",
"00000001lnfc8lihg200000000000000000000000000002ghil8cfnl10000000",
"000000027ee7ahi9200000000000000000000000000000029iha7ee720000000",
"0000002gjfm9mja1000000000000000000000000000000001ajm9mfjg2000000",
"00000016edbajnl1000000000000000000000000000000001lnjabde61000000",
"000002gjf49hh92000000000000000000000000000000000029hh94fjg200000",
"00000qgec83j4000000000000000000000000000000000000004j38cegq00000",
"000019hfmghh6100000000000000000000000000000000000016hhgmfh910000",
"000038de70j3400000000000000001r3100000000000000000043j07ed830000",
"0000pafc8mi65000000000000123oa78a10000000000000000056im8cfap0000",
"00016bfj4hba1000000001235l786bjei6100000000000000001abh4jfb61000",
"00027ce9ljn400000053rlg89mjdstttd83000000000000000004njl9ec72000",
"00038de8njlu00133498gnidettvvvvtcg310000000000000000uljn8ed83000",
"00027edkmia33p6873hcesttvvvvvvvtck6423o000000000000056imkde72000",
"00019ec8hh877uhcesttvvvvvvvvvvvtfding7603200000000005aib8ce91000",
"00004fikmbmcdsttvvvvvvvvvvvvvvtfffffecb48740000000004kmbkif40000",
"00042fdcesttvvvvvvvvvvvvvvvvvtffffffffffej3400000004njcdjdf24000",
"00042fdcesttvvvvvvvvvvvvvvvvvtfffffffffedj340000001lmddedef24000",
"00004fikmbmcdsttvvvvvvvvvvvvvvtfffffdcb68g400000000p4kmbkif40000",
"00019ec8hh877uhcesttvvvvvvvvvvvtfci3gga13200000000005lib8ce91000",
"00027edkmia33p6873hcesttvvvvvvvtjka4231000000000000056imkde72000",
"00038de8njlu00133498gnidettvvvvtcg3p0000000000000000uljn8ed83000",
"00027ce9ljn400000053rlg89mjdstttc83000000000000000004njl9ec72000",
"00016bfj4hba1000000001235l786bjeh6500000000000000001abh4jfb61000",
"0000pafc8mi65000000000000123oa78l10000000000000000056im8cfap0000",
"000038de70j340000000000000000133100000000000000000043j07ed830000",
"000019hfmghh6100000000000000000000000000000000000016hhgmfh910000",
"00000qgec83j4000000000000000000000000000000000000004j38cegq00000",
"000002gjf49hh92000000000000000000000000000000000029hh94fjg200000",
"00000016edbajnl1000000000000000000000000000000001lnjabde61000000",
"0000002gjfm9mja1000000000000000000000000000000001ajm9mfjg2000000",
"000000027ee7ahi9200000000000000000000000000000029iha7ee720000000",
"00000001lnfc8lihg200000000000000000000000000002ghil8cfnl10000000",
"000000003gifh8ndh911000000000000000000000000119hdn8hfig300000000",
"00000000038cfhcniial200000000000000000000002laiinchfc83000000000",
"000000000038dfh8lhjn901000000000100000000109njhl8hfd830000000000",
"0000000000p1gdfh8amjh46451000004l0000015464hjma8hfdg1p0000000000",
"00000000000118cfc79ahjh36641o20nm42o14663hjha97cfc81100000000000",
"000000000000038ifemb93hjibnl6akjdkl6lnbijh39bmefi830000000000000",
"000000000000003gnefd48g0mhjjiibcdmiijjhm0g84dfeng300000000000000",
"0000000000000003l7jefcm7814nmbbdebbmn4187mcfej7l3000000000000000",
"000000000000000012g6jefecjg8k8kjdk8k8gjcefej6g210000000000000000",
"00000000000000000021gghdffeedcideicdeeffdhgg12000000000000000000",
"000000000000000000002198abcdeeffffeedcba891200000000000000000000",
"0000000000000000000000530678794224978760350000000000000000000000",
"0000000000000000000000000123210440123210000000000000000000000000",
"0000000000000000000000000000000000000000000000000000000000000000",
"0000000000000000000000000000000000000000000000000000000000000000",
"0000000000000000000000000000000000000000000000000000000000000000"
};
